_art/var/button.svg

<svg width="150" height="50" viewBox="0 0 150 50" fill="none" xmlns="http://www.w3.org/2000/svg">
<g clip-path="url(#clip0_10_22)">
<path d="M25.8996 46.8C13.7996 46.8 4.09961 37 4.09961 25C4.09961 13 13.7996 3.2 25.8996 3.2C37.8996 3.2 47.6996 13 47.6996 25C47.6996 37 37.8996 46.8 25.8996 46.8Z" fill="#3F2A91"/>
<path d="M22.7996 13.1L19.0996 36.2H22.3996L22.9996 32H27.4996L28.0996 36.2H31.7996L28.0996 13.1H22.7996V13.1ZM23.4996 28.9L25.1996 17.2L26.9996 28.9H23.4996Z" fill="white"/>
<path d="M125 0H25C11.2 0 0 11.2 0 25C0 38.8 11.2 50 25 50H125C138.8 50 150 38.8 150 25C150 11.2 138.8 0 125 0ZM25.9 46.8C13.8 46.8 4.1 37 4.1 25C4.1 13 13.8 3.2 25.9 3.2C37.9 3.2 47.7 13 47.7 25C47.7 37 37.9 46.8 25.9 46.8ZM75.1 16.4H68.8V22.8H73.8V26.1H68.8V32.9H75.1V36.2H65.2V13.1H75.1V16.4ZM88.8 36.2H85.1L80.6 19.5V36.2H77.3V13.1H81.9L85.6 26.9V13.1H88.8V36.2ZM101.6 16.4H97.8V36.2H94.2V16.4H90.4V13.1H101.6V16.4ZM113.1 16.4H106.8V22.8H111.8V26.1H106.8V32.9H113.1V36.2H103.2V13.1H113.1V16.4ZM122.9 36.2C122.7 35.6 122.6 35.2 122.6 33.4V29.8C122.6 27.7 121.9 26.9 120.2 26.9H118.9V36.3H115.3V13.1H120.8C124.6 13.1 126.2 14.8 126.2 18.4V20.2C126.2 22.6 125.4 24.1 123.8 24.9C125.6 25.7 126.2 27.4 126.2 29.8V33.4C126.2 34.5 126.2 35.3 126.6 36.2H122.9V36.2Z" fill="white"/>
<path d="M120.7 16.4H119V23.5H120.4C121.8 23.5 122.6 22.9 122.6 21.1V18.8C122.6 17.1 122 16.4 120.7 16.4Z" fill="white"/>
</g>
<defs>
<clipPath id="clip0_10_22">
<rect width="150" height="50" fill="white"/>
</clipPath>
</defs>
</svg>

<?xml version="1.0" encoding="utf-8"?>
<!-- Generator: Adobe Illustrator 24.0.3, SVG Export Plug-In . SVG Version: 6.00 Build 0)  -->
<svg version="1.0" id="Capa_1" xmlns="http://www.w3.org/2000/svg" xmlns:xlink="http://www.w3.org/1999/xlink" x="0px" y="0px"
	 width="150px" height="50px" viewBox="0 0 150 50" enable-background="new 0 0 150 50" xml:space="preserve">
<g>
	<path fill="#FFFFFF" d="M22.8,13.1l-3.7,23.1h3.3L23,32h4.5l0.6,4.2h3.7l-3.7-23.1H22.8z M23.5,28.9l1.7-11.7L27,28.9H23.5z"/>
	<path fill="#FFFFFF" d="M125,0H25C11.2,0,0,11.2,0,25s11.2,25,25,25h100c13.8,0,25-11.2,25-25S138.8,0,125,0z M25.9,46.8
		C13.8,46.8,4.1,37,4.1,25S13.8,3.2,25.9,3.2c12,0,21.8,9.8,21.8,21.8S37.9,46.8,25.9,46.8z M75.1,16.4h-6.3v6.4h5v3.3h-5v6.8h6.3
		v3.3h-9.9V13.1h9.9V16.4z M88.8,36.2h-3.7l-4.5-16.7v16.7h-3.3V13.1h4.6l3.7,13.8V13.1h3.2C88.8,13.1,88.8,36.2,88.8,36.2z
		 M101.6,16.4h-3.8v19.8h-3.6V16.4h-3.8v-3.3h11.2L101.6,16.4L101.6,16.4z M113.1,16.4h-6.3v6.4h5v3.3h-5v6.8h6.3v3.3h-9.9V13.1h9.9
		V16.4z M122.9,36.2c-0.2-0.6-0.3-1-0.3-2.8v-3.6c0-2.1-0.7-2.9-2.4-2.9h-1.3v9.4h-3.6V13.1h5.5c3.8,0,5.4,1.7,5.4,5.3v1.8
		c0,2.4-0.8,3.9-2.4,4.7c1.8,0.8,2.4,2.5,2.4,4.9v3.6c0,1.1,0,1.9,0.4,2.8H122.9z"/>
	<path fill="#FFFFFF" d="M120.7,16.4H119v7.1h1.4c1.4,0,2.2-0.6,2.2-2.4v-2.3C122.6,17.1,122,16.4,120.7,16.4z"/>
</g>
</svg>
